src/components/Careers/InterviewProcess/images/technical-interview.svg

<svg viewBox="0 0 108 82"><g fill="none" fill-rule="evenodd" transform="translate(0 -13)"><rect width="108.132" height="108.132" rx="9.403"/><rect width="105.132" height="105.132" x="1.5" y="1.5" rx="7.903"/><path fill="#FB4F0D" fill-opacity=".4" fill-rule="nonzero" d="M0 13h67a5 5 0 015 5v10a5 5 0 01-5 5H0V13z"/><path stroke="#FB4F0D" stroke-opacity=".4" stroke-width="3" d="M1.5 14.5H67a3.5 3.5 0 013.5 3.5v10a3.5 3.5 0 01-3.5 3.5H1.5v-17z"/><path fill="#FB4F0D" fill-opacity=".4" fill-rule="nonzero" d="M108 75H41a5 5 0 00-5 5v10a5 5 0 005 5h67V75z"/><path stroke="#FB4F0D" stroke-opacity=".4" stroke-width="3" d="M106.5 76.5H41a3.5 3.5 0 00-3.5 3.5v10a3.5 3.5 0 003.5 3.5h65.5v-17z"/><rect width="2.49" height="61" x="57.582" y="23" fill="#FB4F0D" fill-opacity=".9" fill-rule="nonzero" rx="1.245"/><rect width="2.49" height="61" x="47" y="23" fill="#FB4F0D" fill-opacity=".9" fill-rule="nonzero" rx="1.245"/><path fill="#FB4F0D" fill-opacity=".9" fill-rule="nonzero" d="M58.828 27.98v2.49H48.246v-2.49zm0 5.602v2.49H48.246v-2.49zm0 5.602v2.49H48.246v-2.49zm-.001 5.601v2.49H48.245v-2.49zm.001 5.603v2.49H48.246v-2.49zm0 5.602v2.49H48.246v-2.49zm0 5.602v2.49H48.246v-2.49zm0 5.602v2.49H48.246v-2.49zm0 5.602v2.49H48.246v-2.49zm0 5.602v2.49H48.246v-2.49z"/></g></svg>

<svg xmlns="http://www.w3.org/2000/svg" xmlns:xlink="http://www.w3.org/1999/xlink" width="108" height="82" version="1.1" viewBox="0 0 108 82"><title>technical-interview</title><desc>Created with Sketch.</desc><g id="Page-1" fill="none" fill-rule="evenodd" stroke="none" stroke-width="1"><g id="technical-interview" transform="translate(0.000000, -13.000000)"><g id="Group"><rect id="Rectangle" width="108.132" height="108.132" x="0" y="0" fill-rule="nonzero" rx="9.403"/><rect id="Rectangle" width="105.132" height="105.132" x="1.5" y="1.5" rx="7.903"/></g><path id="Path" fill="#FB4F0D" fill-opacity=".4" fill-rule="nonzero" d="M0,13 L67,13 C69.7614,13 72,15.2386 72,18 L72,28 C72,30.7614 69.7614,33 67,33 L0,33 L0,13 Z"/><path id="Path" stroke="#FB4F0D" stroke-opacity=".4" stroke-width="3" d="M1.5,14.5 L67,14.5 C68.933,14.5 70.5,16.067 70.5,18 L70.5,28 C70.5,29.933 68.933,31.5 67,31.5 L1.5,31.5 L1.5,14.5 Z"/><path id="Path" fill="#FB4F0D" fill-opacity=".4" fill-rule="nonzero" d="M108,75 L41,75 C38.2386,75 36,77.2386 36,80 L36,90 C36,92.7614 38.2386,95 41,95 L108,95 L108,75 Z"/><path id="Path" stroke="#FB4F0D" stroke-opacity=".4" stroke-width="3" d="M106.5,76.5 L41,76.5 C39.067,76.5 37.5,78.067 37.5,80 L37.5,90 C37.5,91.933 39.067,93.5 41,93.5 L106.5,93.5 L106.5,76.5 Z"/><rect id="Rectangle" width="2.49" height="61" x="57.582" y="23" fill="#FB4F0D" fill-opacity=".9" fill-rule="nonzero" rx="1.245"/><rect id="Rectangle" width="2.49" height="61" x="47" y="23" fill="#FB4F0D" fill-opacity=".9" fill-rule="nonzero" rx="1.245"/><rect id="Rectangle" width="2.49" height="10.582" x="52.292" y="23.934" fill="#FB4F0D" fill-opacity=".9" fill-rule="nonzero" transform="translate(53.536600, 29.224600) rotate(90.000000) translate(-53.536600, -29.224600)"/><rect id="Rectangle" width="2.49" height="10.582" x="52.292" y="29.536" fill="#FB4F0D" fill-opacity=".9" fill-rule="nonzero" transform="translate(53.536600, 34.826700) rotate(90.000000) translate(-53.536600, -34.826700)"/><rect id="Rectangle" width="2.49" height="10.582" x="52.292" y="35.138" fill="#FB4F0D" fill-opacity=".9" fill-rule="nonzero" transform="translate(53.536600, 40.428700) rotate(90.000000) translate(-53.536600, -40.428700)"/><rect id="Rectangle" width="2.49" height="10.582" x="52.292" y="40.74" fill="#FB4F0D" fill-opacity=".9" fill-rule="nonzero" transform="translate(53.536600, 46.030800) rotate(90.000000) translate(-53.536600, -46.030800)"/><rect id="Rectangle" width="2.49" height="10.582" x="52.292" y="46.342" fill="#FB4F0D" fill-opacity=".9" fill-rule="nonzero" transform="translate(53.536600, 51.632800) rotate(90.000000) translate(-53.536600, -51.632800)"/><rect id="Rectangle" width="2.49" height="10.582" x="52.292" y="51.944" fill="#FB4F0D" fill-opacity=".9" fill-rule="nonzero" transform="translate(53.536600, 57.234900) rotate(90.000000) translate(-53.536600, -57.234900)"/><rect id="Rectangle" width="2.49" height="10.582" x="52.292" y="57.546" fill="#FB4F0D" fill-opacity=".9" fill-rule="nonzero" transform="translate(53.536600, 62.836900) rotate(90.000000) translate(-53.536600, -62.836900)"/><rect id="Rectangle" width="2.49" height="10.582" x="52.292" y="63.148" fill="#FB4F0D" fill-opacity=".9" fill-rule="nonzero" transform="translate(53.536600, 68.439000) rotate(90.000000) translate(-53.536600, -68.439000)"/><rect id="Rectangle" width="2.49" height="10.582" x="52.292" y="68.75" fill="#FB4F0D" fill-opacity=".9" fill-rule="nonzero" transform="translate(53.536600, 74.041000) rotate(90.000000) translate(-53.536600, -74.041000)"/><rect id="Rectangle" width="2.49" height="10.582" x="52.292" y="74.352" fill="#FB4F0D" fill-opacity=".9" fill-rule="nonzero" transform="translate(53.536600, 79.643100) rotate(90.000000) translate(-53.536600, -79.643100)"/></g></g></svg>
